X:375
T: ES WAR EINMAL EIN MAEDCHEN
N: E0211C
O: Europa, Mitteleuropa, Deutschland, Kreis Wetzlar, Burgsolms
R: erzaehlendes Volks - Lied, Mahn -, Moral - Lied, Strafe; Untreue
M: 4/4
L: 1/16
K: D
D2F2 | A6B2A4G4 | F6E2D4
d4 | c4c4B4B4 | A8z4
A4 | d4d4c4c4 | B6AGF4
A2G2 | F4F4E4E4 | D8z4
A4 | d4d4c4c4 | B6AGF4
A2G2 | F4F4E4E4 | D8z4

